X: 5
T: Jenny's Chickens
R: reel
M: 4/4
L: 1/8
K: Bdor
|:~f3e fece|fefa eAce|~f3e fece|f2af eAce:|
fBBA B2de|fB~B2 eAce|fBBA Bcde|f2af eAce|
fB~B2 bBaB|fB~B2 ABce|fBBA Bcde|f2af edcA||
|:B2bB aBgB|~B2fB edcA|B2bB aBgB|[1 f2af edcA:|[2 f2af eAce|]


Tune 756	Setting 756

